img/svg/products-decoration-image--hover.svg

<svg width="323" height="316" viewBox="0 0 323 316" fill="none" xmlns="http://www.w3.org/2000/svg">
<path d="M0.385986 68.6545L66.6437 315.931L322.614 247.344L256.356 0.0674334L0.385986 68.6545ZM276.652 221.759L219.29 237.129L200.723 167.836L179.355 225.172L132.601 185.815L151.236 255.364L93.6313 270.8L46.3239 94.2461L103.685 78.8761L150.722 117.336L171.496 60.7063L229.344 45.2059L276.652 221.759Z" fill="#3F89DB"/>
</svg>

<svg width="323" height="316" viewBox="0 0 323 316" fill="none" xmlns="http://www.w3.org/2000/svg"><path d="M.386 68.654l66.258 247.277 255.97-68.587L256.356.067.386 68.655zM276.652 221.76l-57.362 15.37-18.567-69.293-21.368 57.336-46.754-39.357 18.635 69.549L93.631 270.8 46.324 94.246l57.361-15.37 47.037 38.46 20.774-56.63 57.848-15.5 47.308 176.553z" fill="#3F89DB"/></svg>
